public/promo/ton.svg

<svg fill="none" height="21" viewBox="0 0 30 21" width="30" xmlns="http://www.w3.org/2000/svg"><g fill="#757575"><path d="m18.1545 21c-2.6391 0-5.1202-1.0279-6.9863-2.8939-.5116-.5116-.5116-1.3418 0-1.8534.5117-.5116 1.3418-.5123 1.8534 0 1.371 1.371 3.1939 2.1261 5.1329 2.1261s3.7619-.7551 5.1329-2.1261c.5116-.5116 1.3418-.5116 1.8534 0s.5116 1.3418 0 1.8534c-1.866 1.8667-4.3472 2.8939-6.9863 2.8939z"/><path d="m23.7207 3.50839c-3.0916 0-5.537 2.37831-5.537 5.46335v3.27416c0 .7877.6397 1.4261 1.4294 1.4261s1.4294-.6384 1.4294-1.4261v-3.37304c0-1.61253 1.2714-2.71674 2.6782-2.71674 1.4075 0 2.8017 1.10421 2.8017 2.71674v3.37304c0 .7877.6397 1.4261 1.4294 1.4261s1.4294-.6384 1.4294-1.4261v-3.27416c-.0007-3.08504-2.5688-5.46335-5.6605-5.46335z"/><path d="m.00066323 9.15623c0 2.56017 1.84146677 4.33327 4.27219677 4.49977.13073.0107.51694.0239.75318.016.73393 0 1.32851-.5933 1.32851-1.3259 0-.7319-.59458-1.3252-1.32851-1.3252h-.38754c-1.01795 0-1.7479-.8142-1.77975-1.80097v-3.091h2.19649c.71734 0 1.29931-.58065 1.29931-1.29666s-.58131-1.29666-1.29931-1.29666h-2.19649v-2.10955c0-.787685-.6397-1.42606-1.42938-1.42606-.789005 0-1.42937.638375-1.42937 1.42606v3.40621 4.32396z"/><path d="m12.0946 3.50839c-2.86339 0-5.18463 2.32124-5.18463 5.18464 0 2.86337 2.32124 5.18467 5.18463 5.18467 2.8634 0 5.1846-2.3213 5.1846-5.18467 0-2.8634-2.3212-5.18464-5.1846-5.18464zm0 7.70031c-1.4121 0-2.55681-1.1261-2.55681-2.51501 0-1.38889 1.14471-2.51501 2.55681-2.51501s2.5568 1.12612 2.5568 2.51501c0 1.38891-1.1447 2.51501-2.5568 2.51501z"/></g></svg>

<svg width="30" height="21" viewBox="0 0 30 21" fill="none" xmlns="http://www.w3.org/2000/svg">
<path d="M18.1545 21C15.5154 21 13.0343 19.9721 11.1682 18.1061C10.6566 17.5945 10.6566 16.7643 11.1682 16.2527C11.6799 15.7411 12.51 15.7404 13.0216 16.2527C14.3926 17.6237 16.2155 18.3788 18.1545 18.3788C20.0935 18.3788 21.9164 17.6237 23.2874 16.2527C23.799 15.7411 24.6292 15.7411 25.1408 16.2527C25.6524 16.7643 25.6524 17.5945 25.1408 18.1061C23.2748 19.9728 20.7936 21 18.1545 21Z" fill="#757575"/>
<path d="M23.7207 3.50839C20.6291 3.50839 18.1837 5.8867 18.1837 8.97174V12.2459C18.1837 13.0336 18.8234 13.672 19.6131 13.672C20.4028 13.672 21.0425 13.0336 21.0425 12.2459V8.87286C21.0425 7.26033 22.3139 6.15612 23.7207 6.15612C25.1282 6.15612 26.5224 7.26033 26.5224 8.87286V12.2459C26.5224 13.0336 27.1621 13.672 27.9518 13.672C28.7415 13.672 29.3812 13.0336 29.3812 12.2459V8.97174C29.3805 5.8867 26.8124 3.50839 23.7207 3.50839Z" fill="#757575"/>
<path d="M0.000663227 9.15623C0.000663227 11.7164 1.84213 13.4895 4.27286 13.656C4.40359 13.6667 4.7898 13.6799 5.02604 13.672C5.75997 13.672 6.35455 13.0787 6.35455 12.3461C6.35455 11.6142 5.75997 11.0209 5.02604 11.0209H4.6385C3.62055 11.0209 2.8906 10.2067 2.85875 9.21993V6.12893H5.05524C5.77258 6.12893 6.35455 5.54828 6.35455 4.83227C6.35455 4.11626 5.77324 3.53561 5.05524 3.53561H2.85875V1.42606C2.85875 0.638375 2.21905 0 1.42937 0C0.640365 0 0 0.638375 0 1.42606V4.83227V9.15623H0.000663227Z" fill="#757575"/>
<path d="M12.0946 3.50839C9.23121 3.50839 6.90997 5.82963 6.90997 8.69303C6.90997 11.5564 9.23121 13.8777 12.0946 13.8777C14.958 13.8777 17.2792 11.5564 17.2792 8.69303C17.2792 5.82963 14.958 3.50839 12.0946 3.50839ZM12.0946 11.2087C10.6825 11.2087 9.53779 10.0826 9.53779 8.69369C9.53779 7.3048 10.6825 6.17868 12.0946 6.17868C13.5067 6.17868 14.6514 7.3048 14.6514 8.69369C14.6514 10.0826 13.5067 11.2087 12.0946 11.2087Z" fill="#757575"/>
</svg>
